X:1
T:Güldne Haare - Schütz
T:James Gibb editions
T:#
%%score [ 1 2 ] [ 3 4 ]
L:1/8
Q:1/4=80
M:2/2
K:C
V:1 treble nm="Midi_41"
V:2 treble nm="Midi_41"
V:3 treble nm="S I" snm="S I"
V:4 treble nm="S II" snm="S II"
V:1
"^Güldne Haare, SWV 440""^Heinrich Schütz\n(1585-1672)" z8 | z2 g2 a/g/f/e/ dg/f/ | %2
 e2 z2 z e/d/ cB | c2 z e dc c>B | c2 z2 z4 | %5
[Q:1/4=100][Q:1/4=100][Q:1/4=100][Q:1/4=100] z2 g2 a/g/f/e/ dg/f/ | e2 z2 z e/d/ cB | %7
 c2 z e dc c>B | c2 B2 A2 BG- | Gc G2 A c2 B | c2 G d2 c d2 | f g2 c A2 d2 | e2 B2 A2 BG- | %13
 Gc G2 A c2 B | c2 G d2 c d2 | f g2 c A2 d2 | e2 z2 z4 | z2 g2 a/g/f/e/ d/e/f/d/ | e2 z2 z2 g2 | %19
 a2 z g f/e/d/c/ B/c/d/B/ | c2 z2 z4 | z2 g2 a/g/f/e/ d/e/f/d/ | e2 z2 z2 g2 | %23
 a2 z g f/e/d/c/ B/c/d/B/ | c2 z2 z4 | z8 | z8 | z8 | z8 | z2 g2 a/g/f/e/ d/e/f/d/ | %30
 e2 z2 z e/d/ cB | c2 z e dc c>B | c2 z2 z4 | z8 | z8 | z8 | z8 | z2 g2 a/g/f/e/ d/e/f/d/ | %38
 e2 z2 z2 g2 | a2 z g f/e/d/c/ B/c/d/B/ | c2 z2 z4 | z8 |[M:2/2] z8 | z8 | z8 |[M:2/2] z8 | z8 | %47
 z8 | z8 |[M:2/2] z2 B2 A2 BG- | Gc G2 A c2 B | c2 G d2 c d2 | f g2 c A2 d2 | e2 z2 z4 | %54
[M:2/2] z8 | z8 | z8 |[M:2/2] z8 | z2 g2 a/g/f/e/ dg/f/ | e2 z2 z e/d/ cB | c2 z e dc c>B | %61
 c2 z2 z4 |[M:2/2] z8 | z8 | z8 | z8 |[M:2/2] z8 | z8 | z8 | z4 g4[Q:1/4=99] | %70
[Q:1/4=98] c4[Q:1/4=97] c4[Q:1/4=98][Q:1/4=96] |[Q:1/4=94] g8 |[Q:1/4=90] !fermata!e16 |] %73
V:2
 z2 g2 a/g/f/e/ dg/f/ | edcB A/B/ c2 B | cg/f/ ed cc'/b/ ag | a2 z g fe d2 | c2 g2 a/g/f/e/ dg/f/ | %5
 edcB A/B/ c2 B | cg/f/ ed cc'/b/ ag | a3 g fe d2 | c2 g2 f d2 g | e2 B c2 A d2 | e g2 d e2 ga- | %11
 ac e2 d c2 B | c2 g2 f d2 g | e2 B c2 A d2 | e g2 d e2 ga- | ac e2 d c2 B | %16
 c2 g2 a/g/f/e/ d/e/f/d/ | e/f/g/f/ e/d/c/B/ A/B/c/A/ B/c/d/B/ | c2 g2 a2 z2 | %19
 z2 g2 a/g/f/e/ d/e/f/d/ | e2 g2 a/g/f/e/ d/e/f/d/ | e/f/g/f/ e/d/c/B/ A/B/c/A/ B/c/d/B/ | %22
 c2 g2 a2 z2 | z2 g2 a/g/f/e/ d/e/f/d/ | e2 z2 z4 | z8 | z8 | z8 | z2 g2 a/g/f/e/ dg/f/ | %29
 edcB A/B/ c2 B | cg/f/ ed cc'/b/ ag | a2 z g fe d2 | c2 z2 z4 | z8 | z8 | z8 | %36
 z2 g2 a/g/f/e/ d/e/f/d/ | e/f/g/f/ e/d/c/B/ A/B/c/A/ B/c/d/B/ | c2 g2 a2 z2 | %39
 z2 g2 a/g/f/e/ d/e/f/d/ | e2 z2 z4 | z8 |[M:2/2] z8 | z8 | z8 |[M:2/2] z8 | z8 | z8 | z8 | %49
[M:2/2] z2 g2 f d2 g | e2 B c2 A d2 | e g2 d e2 ga- | ac e2 d c2 B | c2 z2 z4 |[M:2/2] z8 | z8 | %56
 z8 |[M:2/2] z2 g2 a/g/f/e/ d/e/f/d/ | edcB A/B/ c2 B | cg/f/ ed cc'/b/ ag | a2 z g fe d2 | %61
 c2 z2 z4 |[M:2/2] z8 | z8 | z8 | z8 |[M:2/2] z8 | z8 | z8 | z4 e4 | a2 g2 f2 e2 | d4 G4 | %72
 !fermata!G16 |] %73
V:3
 z8 | z8 | z8 | z8 | z8 |[M:2/2] z8 | z8 | z8 | z8 | z8 | z8 |[M:2/2] z8 | z8 | z8 | z8 | z8 | z8 | %17
w: |||||||||||||||||
[M:2/2] z8 | z8 | z8 | z8 | z8 |[M:2/2][K:treble] z8 | z8 | z2 g>g ggfe | ddg>g f>ed>c | %26
w: |||||||Güld- ne Haa- re, gleich Au-|ro- ra, ihr ver- ir- ret und ver-|
 (c>G A>B c>d B>c | AAGG A>cc>B | cc z2 z4 | z8 | z8 | z8 | z2 c>c c>cc>B | BBee d>cc>B | %34
w: wir\- * * * * * * *|* ret mein jungs Her- ze oh- ne|Scher- ze,||||run- des Stirn- lein, weiss wie|Helfn- bein, auf dir woh- net Ve- nus|
 c>G A>B c2 d>e | ffGG A>cc>B | cc z2 z4 | z8 | z8 | z8 | z2 e>f ggfe | ddee d>cc>B | %42
w: Soh\- * * * * * *|* ne und ver- wun- det mich zur|Stun- de.||||Kla- re Äug- lein, glän- zend|Stern- lein, eu- er Glanz töd- tet mich|
 c2 d>e fc d/c/d/e/ | f2) cc ccc>B | (c>G A>B c>G A/G/A/B/ | ccee d>cc>B | (c2 d2 edec | %47
w: ganz, * * * * * * * *|* eu- re Strah- len machn mir|Qua\- * * * * * * * * *|* len, eu- re Strah- len machn mir|Qua\- * * * * *|
 d3 A Bc d<c | B)Bgg fed>c | cc z2 z4 | z8 | z8 | z8 | z2 ee e>ee>d | d>dd>d d>dd>c | %55
w: |* len, eu- re Strah- len machn mir|Qua- len.||||Cor- alln münd- lein, schee- weiss|Händ- lein, ros- farb Wan- gen, ihr habt|
 c>d c>d c>d B>c | A)AGG d>cc>B | cc z2 z4 | z8 | z8 | z8 | z2 g>f e>ed>c | BBg>g f>ed>d | %63
w: gfan\- * * * * * * *|* gen mich für- wah- re ganz und|ga- re.||||Wo nicht sen- det Ve- nus|bhen- de Hulf mir Ar- men mit er-|
 cc d2- d4 | d2 z e d>cc>B | c2 c4 de | f2 g2 f2 e2 | (c2 de fedc | d4- d/e/f/e/ d/c/B/A/ | %69
w: bar- men, ach, *|* ich ster- be und ver-|der- be, ach, ich|ster- be un ver-|der\- * * * * * *||
 B4) G2 G2 | A2 B2 c3 d | d8 | !fermata!c16 |] %73
w: * be, ich|ster- be und ver-|der-|be.|
V:4
 z8 | z8 | z8 | z8 | z8 |[M:2/2] z8 | z8 | z8 | z8 | z8 | z8 |[M:2/2] z8 | z8 | z8 | z8 | z8 | z8 | %17
w: |||||||||||||||||
[M:2/2] z8 | z8 | z8 | z8 | z8 |[M:2/2][K:treble] z8 | z8 | z2 e>e eedc | BBee d>cc>B | %26
w: |||||||Güld- ne Haa- re, gleich Au-|ro- ra, ihr ver- ir- ret und ver-|
 (c>E F>G A>C D>E | FFGG FEDD | CC z2 z4 | z8 | z8 | z8 | z2 ee e>ee>e | ddcc A>Ad>d | %34
w: wir\- * * * * * * *|* ret mein jungs Her- ze oh- ne|Scher- ze,||||run- des Stirn- lein, weiss wie|Helfn- bein, auf dir woh- net Ve- nus|
 c>B c>d e>E F>G | AABc ded>c | cc z2 z4 | z8 | z8 | z8 | z2 ee e>ed>c | BBcB A>Ad>d | %42
w: Soh\- * * * * * * *|* ne und ver- wun- det mich zur|Stun- de.||||Kla- re Äug- lein, glän- zend|Stern- lein, eu- er Glanz töd- tet mich|
 c/B/c/A/ B/A/B/G/ c/B/c/A/ B/A/B/G/ | A2) GG F>ED>D | (C>E F>G A>E F/E/F/G/) | A2 cc AAdd | %46
w: ganz, * * * * * * * * * * * * * * *|* eu- re Strah- len machn mir|Qua\- * * * * * * * * *|len, eu- re Strah- len machn mir|
 (c2 B2 cBcA | d3 c dcBA | G)GGG A>cc>B | cc z2 z4 | z8 | z8 | z8 | z2 cc c>cc>c | BBB>B A>Ac>B | %55
w: Qua\- * * * * *||* len, eu- re Strah- len machn mir|Qua- len.||||Cor- alln münd- lein, schee- weiss|Händ- lein, ros- farb Wan- gen, ihr habt|
 (cB/A/ G/A/B/G/ AG/F/ E/F/G/E/ | F)FGG F>ED>C | CC z2 z4 | z8 | z8 | z8 | z2 e>d ccB>A | %62
w: gfan\- * * * * * * * * * * * * *|* gen mich für- wah- re ganz und|ga- re.||||Wo nicht sen- det Ve- nus|
 dde>e dcc>B | cc (c4 B2 | A2) z G F>ED>D | E2 E4 FG | A2 G2 A2 B2 | (A6 Bc | dcBA d4- | %69
w: bhen- de Hülf mir Ar- men mit er-|bar- men, ach, *|* ich ster- be und ver-|der- be, ach, ich|ster- be un ver-|der\- * *||
 d4) e2 e2 | c2 c2 c3 c | B8 | !fermata!c16 |] %73
w: * be, ich|ster- be und ver-|der-|be.|

